X:1
T:Lord of the Dance
M:4/4
L:1/8
K:G
 z4 z2 D2| G2 GG BA Bc| d2 dd B2 BB| A2 AA A2 AB|c-B AG F2 DD| G2 GG BA Bc|\
 d2 dd B3 B| A2 A2 B3 A| G2 G2 G4| d4 B3 A| Bc BA G4| B2 BB d2 cB|\
 A2 A2 A2 DD| G2 G2 G3 A| BA Bc d2 cB| A2 A2 B2 BA| G2 G2 G2 z2|

